X: 42639
T: Whiskey Before Breakfast
R: reel
M: 4/4
K: Dmajor
D2 FD A2 A2|ABAG (3(FGF) D2|GABG FFAF|EDEF FGFE|
D2 FD A2 z2|ABAG (3(FGF) D2|GABG FFAF|1 EDEF D2 DD:|2 EDEF D2 z2||
d3 d d2 Bc|dBAF (3(EFE) D2|e3 e e2 ef|gfed (3(cdc) Ac|
defd cd e2|ABAG (3(FGF) DF|GABG FFAF|1 EDEF D2 z2:|2 EDEF D2 DD||

